src/pos-icons/airplane.svg

<svg height="24" viewBox="0 0 24 24" width="24" xmlns="http://www.w3.org/2000/svg"><path d="m21 16v-2l-8-5v-5.5a1.5 1.5 0 0 0 -1.5-1.5 1.5 1.5 0 0 0 -1.5 1.5v5.5l-8 5v2l8-2.5v5.5l-2 1.5v1.5l3.5-1 3.5 1v-1.5l-2-1.5v-5.5z"/></svg>

<?xml version="1.0" encoding="UTF-8"?><!DOCTYPE svg PUBLIC "-//W3C//DTD SVG 1.1//EN" "http://www.w3.org/Graphics/SVG/1.1/DTD/svg11.dtd"><svg xmlns="http://www.w3.org/2000/svg" xmlns:xlink="http://www.w3.org/1999/xlink" version="1.1" id="mdi-airplane" width="24" height="24" viewBox="0 0 24 24"><path d="M21,16V14L13,9V3.5A1.5,1.5 0 0,0 11.5,2A1.5,1.5 0 0,0 10,3.5V9L2,14V16L10,13.5V19L8,20.5V22L11.5,21L15,22V20.5L13,19V13.5L21,16Z" /></svg>
